icons/mobile_clinic.svg

<svg width="48" height="48" viewBox="0 0 48 48" fill="none" xmlns="http://www.w3.org/2000/svg">
<path d="M17 18V15H19V18H22V20H19V23H17V20H14V18H17Z" fill="black"/>
<path fill-rule="evenodd" clip-rule="evenodd" d="M4 13C4 11.3431 5.34315 10 7 10H29C30.6569 10 32 11.3431 32 13V19H35.718C36.4722 19 37.1987 19.2841 37.7529 19.7956L43.0348 24.6713C43.6501 25.2392 44 26.0384 44 26.8757V35H40.874C40.4299 36.7252 38.8638 38 37 38C35.1362 38 33.5701 36.7252 33.126 35H23.874C23.4299 36.7252 21.8638 38 20 38C18.1362 38 16.5701 36.7252 16.126 35H14.874C14.4299 36.7252 12.8638 38 11 38C9.13616 38 7.57006 36.7252 7.12602 35H4V13ZM37 30C35.1362 30 33.5701 31.2748 33.126 33H32V28H42V33H40.874C40.4299 31.2748 38.8638 30 37 30ZM36.3963 21.2652L41.5257 26H32V21H35.718C35.9694 21 36.2116 21.0947 36.3963 21.2652ZM7 12C6.44772 12 6 12.4477 6 13V26H30V13C30 12.4477 29.5523 12 29 12H7ZM20 30C21.8638 30 23.4299 31.2748 23.874 33H30V28H6V33H7.12602C7.57006 31.2748 9.13616 30 11 30C12.8638 30 14.4299 31.2748 14.874 33H16.126C16.5701 31.2748 18.1362 30 20 30ZM11 36C9.89543 36 9 35.1046 9 34C9 32.8954 9.89543 32 11 32C12.1046 32 13 32.8954 13 34C13 35.1046 12.1046 36 11 36ZM22 34C22 35.1046 21.1046 36 20 36C18.8954 36 18 35.1046 18 34C18 32.8954 18.8954 32 20 32C21.1046 32 22 32.8954 22 34ZM37 36C38.1046 36 39 35.1046 39 34C39 32.8954 38.1046 32 37 32C35.8954 32 35 32.8954 35 34C35 35.1046 35.8954 36 37 36Z" fill="black"/>
</svg>

<svg
  xmlns="http://www.w3.org/2000/svg"
  width="24"
  height="24"
  viewBox="0 0 24 24"
  fill="none"
  stroke="currentColor"
  stroke-width="2"
  stroke-linecap="round"
  stroke-linejoin="round"
>
  <path d="M17 18v-3h2v3h3v2h-3v3h-2v-3h-3v-2z" />
  <path
    fill-rule="evenodd"
    d="M4 13a3 3 0 0 1 3-3h22a3 3 0 0 1 3 3v6h3.718a3 3 0 0 1 2.035.796l5.282 4.875A3 3 0 0 1 44 26.876V35h-3.126a4.002 4.002 0 0 1-7.748 0h-9.252a4.002 4.002 0 0 1-7.748 0h-1.252a4.002 4.002 0 0 1-7.748 0H4zm33 17a4 4 0 0 0-3.874 3H32v-5h10v5h-1.126A4 4 0 0 0 37 30m-.604-8.735L41.526 26H32v-5h3.718a1 1 0 0 1 .678.265M7 12a1 1 0 0 0-1 1v13h24V13a1 1 0 0 0-1-1zm13 18a4 4 0 0 1 3.874 3H30v-5H6v5h1.126a4.002 4.002 0 0 1 7.748 0h1.252c.444-1.725 2.01-3 3.874-3m-9 6a2 2 0 1 1 0-4 2 2 0 0 1 0 4m11-2a2 2 0 1 1-4 0 2 2 0 0 1 4 0m15 2a2 2 0 1 0 0-4 2 2 0 0 0 0 4"
    clip-rule="evenodd"
  />
</svg>
